public/icons/pieces/br.svg

<?xml version="1.0" encoding="UTF-8" standalone="no"?>
<svg
   version="1.1"
   width="45"
   height="45"
   id="svg11"
   sodipodi:docname="br.svg"
   inkscape:version="1.4 (86a8ad7, 2024-10-11)"
   xmlns:inkscape="http://www.inkscape.org/namespaces/inkscape"
   xmlns:sodipodi="http://sodipodi.sourceforge.net/DTD/sodipodi-0.dtd"
   xmlns="http://www.w3.org/2000/svg"
   xmlns:svg="http://www.w3.org/2000/svg">
  <defs
     id="defs11" />
  <sodipodi:namedview
     id="namedview11"
     pagecolor="#ffffff"
     bordercolor="#000000"
     borderopacity="0.25"
     inkscape:showpageshadow="2"
     inkscape:pageopacity="0.0"
     inkscape:pagecheckerboard="0"
     inkscape:deskcolor="#d1d1d1"
     inkscape:zoom="27"
     inkscape:cx="22.518519"
     inkscape:cy="22.5"
     inkscape:window-width="5120"
     inkscape:window-height="1417"
     inkscape:window-x="-8"
     inkscape:window-y="-8"
     inkscape:window-maximized="1"
     inkscape:current-layer="svg11" />
  <g
     style="opacity:1;fill:#666666;fill-opacity:1;fill-rule:evenodd;stroke:#666666;stroke-width:1.5;stroke-linecap:round;stroke-linejoin:round;stroke-miterlimit:4;stroke-dasharray:none;stroke-opacity:1"
     transform="matrix(0.40705834,0,0,0.38507215,29.38557,-2.5053182)"
     id="g11">
    <path
       d="M 9,39 H 36 V 36 H 9 Z"
       style="stroke-linecap:butt"
       id="path1" />
    <path
       d="M 12.5,32 14,29.5 h 17 l 1.5,2.5 z"
       style="stroke-linecap:butt"
       id="path2" />
    <path
       d="m 12,36 v -4 h 21 v 4 z"
       style="stroke-linecap:butt"
       id="path3" />
    <path
       d="m 14,29.5 v -13 h 17 v 13 z"
       style="stroke-linecap:butt;stroke-linejoin:miter"
       id="path4" />
    <path
       d="M 14,16.5 11,14 h 23 l -3,2.5 z"
       style="stroke-linecap:butt"
       id="path5" />
    <path
       d="M 11,14 V 9 h 4 v 2 h 5 V 9 h 5 v 2 h 5 V 9 h 4 v 5 z"
       style="stroke-linecap:butt"
       id="path6" />
    <path
       d="m 12,35.5 h 21 v 0"
       style="fill:none;stroke:#ffffff;stroke-width:1;stroke-linejoin:miter"
       id="path7" />
    <path
       d="M 13,31.5 H 32"
       style="fill:none;stroke:#ffffff;stroke-width:1;stroke-linejoin:miter"
       id="path8" />
    <path
       d="M 14,29.5 H 31"
       style="fill:none;stroke:#ffffff;stroke-width:1;stroke-linejoin:miter"
       id="path9" />
    <path
       d="M 14,16.5 H 31"
       style="fill:none;stroke:#ffffff;stroke-width:1;stroke-linejoin:miter"
       id="path10" />
    <path
       d="M 11,14 H 34"
       style="fill:none;stroke:#ffffff;stroke-width:1;stroke-linejoin:miter"
       id="path11" />
  </g>
  <path
     style="fill:#666666;fill-opacity:0.503401;stroke:#666666;stroke-width:0;stroke-linecap:round"
     id="path5-2"
     sodipodi:type="arc"
     sodipodi:cx="22.5"
     sodipodi:cy="22.5"
     sodipodi:rx="22.5"
     sodipodi:ry="22.5"
     sodipodi:start="6.2790937"
     sodipodi:end="6.2689377"
     sodipodi:open="true"
     sodipodi:arc-type="arc"
     d="M 44.999812,22.407939 A 22.5,22.5 0 0 1 22.649188,44.999505 22.5,22.5 0 0 1 9.4591245e-4,22.706313 22.5,22.5 0 0 1 22.236562,0.00154226 22.5,22.5 0 0 1 44.997716,22.17944" />
</svg>

<?xml version="1.0" encoding="UTF-8" standalone="no"?>
<!DOCTYPE svg PUBLIC "-//W3C//DTD SVG 1.1//EN" "http://www.w3.org/Graphics/SVG/1.1/DTD/svg11.dtd">
<svg xmlns="http://www.w3.org/2000/svg" version="1.1" width="45" height="45">
  <g style="opacity:1; fill:#000000; fill-opacity:1; fill-rule:evenodd; stroke:#000000; stroke-width:1.5; stroke-linecap:round;stroke-linejoin:round;stroke-miterlimit:4; stroke-dasharray:none; stroke-opacity:1;" transform="translate(0,0.3)">
    <path
      d="M 9,39 L 36,39 L 36,36 L 9,36 L 9,39 z "
      style="stroke-linecap:butt;" />
    <path
      d="M 12.5,32 L 14,29.5 L 31,29.5 L 32.5,32 L 12.5,32 z "
      style="stroke-linecap:butt;" />
    <path
      d="M 12,36 L 12,32 L 33,32 L 33,36 L 12,36 z "
      style="stroke-linecap:butt;" />
    <path
      d="M 14,29.5 L 14,16.5 L 31,16.5 L 31,29.5 L 14,29.5 z "
      style="stroke-linecap:butt;stroke-linejoin:miter;" />
    <path
      d="M 14,16.5 L 11,14 L 34,14 L 31,16.5 L 14,16.5 z "
      style="stroke-linecap:butt;" />
    <path
      d="M 11,14 L 11,9 L 15,9 L 15,11 L 20,11 L 20,9 L 25,9 L 25,11 L 30,11 L 30,9 L 34,9 L 34,14 L 11,14 z "
      style="stroke-linecap:butt;" />
    <path
      d="M 12,35.5 L 33,35.5 L 33,35.5"
      style="fill:none; stroke:#ffffff; stroke-width:1; stroke-linejoin:miter;" />
    <path
      d="M 13,31.5 L 32,31.5"
      style="fill:none; stroke:#ffffff; stroke-width:1; stroke-linejoin:miter;" />
    <path
      d="M 14,29.5 L 31,29.5"
      style="fill:none; stroke:#ffffff; stroke-width:1; stroke-linejoin:miter;" />
    <path
      d="M 14,16.5 L 31,16.5"
      style="fill:none; stroke:#ffffff; stroke-width:1; stroke-linejoin:miter;" />
    <path
      d="M 11,14 L 34,14"
      style="fill:none; stroke:#ffffff; stroke-width:1; stroke-linejoin:miter;" />
  </g>
</svg>
